producthuntturkey/static/images/svg/github_en.svg

<svg width="156" height="55" viewBox="0 0 156 55" fill="none" xmlns="http://www.w3.org/2000/svg">
<path d="M149.124 1H6.8755C3.63055 1 1 5.25329 1 10.5V44.5C1 49.7467 3.63055 54 6.8755 54H149.124C152.369 54 155 49.7467 155 44.5V10.5C155 5.25329 152.369 1 149.124 1Z" fill="#FFFFFC" stroke="black"/>
<path fill-rule="evenodd" clip-rule="evenodd" d="M32 12C23.16 12 16 19.16 16 28C16 35.08 20.58 41.06 26.94 43.18C27.74 43.32 28.04 42.84 28.04 42.42C28.04 42.04 28.02 40.78 28.02 39.44C24 40.18 22.96 38.46 22.64 37.56C22.46 37.1 21.68 35.68 21 35.3C20.44 35 19.64 34.26 20.98 34.24C22.24 34.22 23.14 35.4 23.44 35.88C24.88 38.3 27.18 37.62 28.1 37.2C28.24 36.16 28.66 35.46 29.12 35.06C25.56 34.66 21.84 33.28 21.84 27.16C21.84 25.42 22.46 23.98 23.48 22.86C23.32 22.46 22.76 20.82 23.64 18.62C23.64 18.62 24.98 18.2 28.04 20.26C29.32 19.9 30.68 19.72 32.04 19.72C33.4 19.72 34.76 19.9 36.04 20.26C39.1 18.18 40.44 18.62 40.44 18.62C41.32 20.82 40.76 22.46 40.6 22.86C41.62 23.98 42.24 25.4 42.24 27.16C42.24 33.3 38.5 34.66 34.94 35.06C35.52 35.56 36.02 36.52 36.02 38.02C36.02 40.16 36 41.88 36 42.42C36 42.84 36.3 43.34 37.1 43.18C40.2762 42.1076 43.0362 40.0662 44.9916 37.3432C46.9469 34.6201 47.999 31.3524 48 28C48 19.16 40.84 12 32 12Z" fill="black"/>
<path d="M65.88 22.09C65.478 22.09 65.085 22.045 64.701 21.955C64.323 21.865 63.993 21.73 63.711 21.55C63.573 21.46 63.489 21.349 63.459 21.217C63.429 21.085 63.438 20.962 63.486 20.848C63.54 20.728 63.621 20.647 63.729 20.605C63.843 20.557 63.972 20.578 64.116 20.668C64.38 20.824 64.659 20.938 64.953 21.01C65.247 21.082 65.556 21.118 65.88 21.118C66.354 21.118 66.699 21.04 66.915 20.884C67.131 20.722 67.239 20.515 67.239 20.263C67.239 20.053 67.161 19.888 67.005 19.768C66.855 19.648 66.594 19.549 66.222 19.471L65.232 19.264C64.104 19.024 63.54 18.445 63.54 17.527C63.54 17.131 63.645 16.786 63.855 16.492C64.065 16.198 64.356 15.97 64.728 15.808C65.1 15.646 65.529 15.565 66.015 15.565C66.375 15.565 66.717 15.61 67.041 15.7C67.365 15.79 67.656 15.922 67.914 16.096C68.034 16.18 68.106 16.285 68.13 16.411C68.154 16.531 68.139 16.645 68.085 16.753C68.031 16.855 67.944 16.927 67.824 16.969C67.71 17.005 67.575 16.978 67.419 16.888C67.197 16.762 66.972 16.672 66.744 16.618C66.516 16.564 66.27 16.537 66.006 16.537C65.592 16.537 65.268 16.624 65.034 16.798C64.8 16.972 64.683 17.2 64.683 17.482C64.683 17.698 64.755 17.872 64.899 18.004C65.043 18.13 65.289 18.229 65.637 18.301L66.618 18.508C67.212 18.634 67.653 18.832 67.941 19.102C68.235 19.372 68.382 19.732 68.382 20.182C68.382 20.56 68.28 20.893 68.076 21.181C67.872 21.469 67.581 21.694 67.203 21.856C66.831 22.012 66.39 22.09 65.88 22.09ZM73.1449 22.072C72.7609 22.072 72.5689 21.874 72.5689 21.478V16.618H70.8139C70.4839 16.618 70.3189 16.456 70.3189 16.132C70.3189 15.814 70.4839 15.655 70.8139 15.655H75.4759C75.8059 15.655 75.9709 15.814 75.9709 16.132C75.9709 16.456 75.8059 16.618 75.4759 16.618H73.7209V21.478C73.7209 21.874 73.5289 22.072 73.1449 22.072ZM77.7886 22.072C77.5786 22.072 77.4286 22 77.3386 21.856C77.2486 21.712 77.2516 21.538 77.3476 21.334L79.7236 16.069C79.8016 15.895 79.8946 15.772 80.0026 15.7C80.1166 15.622 80.2456 15.583 80.3896 15.583C80.5276 15.583 80.6506 15.622 80.7586 15.7C80.8726 15.772 80.9686 15.895 81.0466 16.069L83.4316 21.334C83.5276 21.544 83.5336 21.721 83.4496 21.865C83.3656 22.003 83.2216 22.072 83.0176 22.072C82.8496 22.072 82.7176 22.033 82.6216 21.955C82.5316 21.871 82.4506 21.745 82.3786 21.577L81.9286 20.533H78.8326L78.3916 21.577C78.3136 21.751 78.2326 21.877 78.1486 21.955C78.0646 22.033 77.9446 22.072 77.7886 22.072ZM80.3716 16.906L79.2286 19.615H81.5326L80.3896 16.906H80.3716ZM86.7989 22.072C86.4149 22.072 86.2229 21.874 86.2229 21.478V16.24C86.2229 15.85 86.4179 15.655 86.8079 15.655H88.9769C89.6729 15.655 90.2099 15.823 90.5879 16.159C90.9659 16.489 91.1549 16.954 91.1549 17.554C91.1549 18.028 91.0319 18.421 90.7859 18.733C90.5399 19.039 90.1859 19.246 89.7239 19.354C90.0299 19.45 90.2819 19.681 90.4799 20.047L91.1549 21.298C91.2569 21.49 91.2749 21.667 91.2089 21.829C91.1489 21.991 90.9959 22.072 90.7499 22.072C90.5879 22.072 90.4559 22.039 90.3539 21.973C90.2519 21.901 90.1619 21.793 90.0839 21.649L89.1749 19.975C89.0669 19.771 88.9379 19.636 88.7879 19.57C88.6439 19.498 88.4579 19.462 88.2299 19.462H87.3749V21.478C87.3749 21.874 87.1829 22.072 86.7989 22.072ZM87.3749 18.607H88.7789C89.6189 18.607 90.0389 18.265 90.0389 17.581C90.0389 16.903 89.6189 16.564 88.7789 16.564H87.3749V18.607ZM101.073 22.09C100.203 22.09 99.5372 21.865 99.0752 21.415C98.6192 20.959 98.3912 20.287 98.3912 19.399V16.168C98.3912 15.778 98.5832 15.583 98.9672 15.583C99.3512 15.583 99.5432 15.778 99.5432 16.168V19.39C99.5432 19.96 99.6722 20.389 99.9302 20.677C100.194 20.959 100.575 21.1 101.073 21.1C102.087 21.1 102.594 20.53 102.594 19.39V16.168C102.594 15.778 102.786 15.583 103.17 15.583C103.548 15.583 103.737 15.778 103.737 16.168V19.399C103.737 20.287 103.512 20.959 103.062 21.415C102.612 21.865 101.949 22.09 101.073 22.09ZM109.068 22.09C108.666 22.09 108.273 22.045 107.889 21.955C107.511 21.865 107.181 21.73 106.899 21.55C106.761 21.46 106.677 21.349 106.647 21.217C106.617 21.085 106.626 20.962 106.674 20.848C106.728 20.728 106.809 20.647 106.917 20.605C107.031 20.557 107.16 20.578 107.304 20.668C107.568 20.824 107.847 20.938 108.141 21.01C108.435 21.082 108.744 21.118 109.068 21.118C109.542 21.118 109.887 21.04 110.103 20.884C110.319 20.722 110.427 20.515 110.427 20.263C110.427 20.053 110.349 19.888 110.193 19.768C110.043 19.648 109.782 19.549 109.41 19.471L108.42 19.264C107.292 19.024 106.728 18.445 106.728 17.527C106.728 17.131 106.833 16.786 107.043 16.492C107.253 16.198 107.544 15.97 107.916 15.808C108.288 15.646 108.717 15.565 109.203 15.565C109.563 15.565 109.905 15.61 110.229 15.7C110.553 15.79 110.844 15.922 111.102 16.096C111.222 16.18 111.294 16.285 111.318 16.411C111.342 16.531 111.327 16.645 111.273 16.753C111.219 16.855 111.132 16.927 111.012 16.969C110.898 17.005 110.763 16.978 110.607 16.888C110.385 16.762 110.16 16.672 109.932 16.618C109.704 16.564 109.458 16.537 109.194 16.537C108.78 16.537 108.456 16.624 108.222 16.798C107.988 16.972 107.871 17.2 107.871 17.482C107.871 17.698 107.943 17.872 108.087 18.004C108.231 18.13 108.477 18.229 108.825 18.301L109.806 18.508C110.4 18.634 110.841 18.832 111.129 19.102C111.423 19.372 111.57 19.732 111.57 20.182C111.57 20.56 111.468 20.893 111.264 21.181C111.06 21.469 110.769 21.694 110.391 21.856C110.019 22.012 109.578 22.09 109.068 22.09ZM121.446 22.09C120.834 22.09 120.297 21.955 119.835 21.685C119.379 21.415 119.025 21.037 118.773 20.551C118.521 20.059 118.395 19.483 118.395 18.823C118.395 18.157 118.521 17.581 118.773 17.095C119.025 16.609 119.379 16.234 119.835 15.97C120.291 15.7 120.828 15.565 121.446 15.565C122.064 15.565 122.601 15.7 123.057 15.97C123.513 16.234 123.867 16.609 124.119 17.095C124.371 17.581 124.497 18.154 124.497 18.814C124.497 19.48 124.371 20.059 124.119 20.551C123.867 21.037 123.513 21.415 123.057 21.685C122.601 21.955 122.064 22.09 121.446 22.09ZM121.446 21.1C122.028 21.1 122.481 20.899 122.805 20.497C123.129 20.095 123.291 19.537 123.291 18.823C123.291 18.103 123.129 17.545 122.805 17.149C122.487 16.753 122.034 16.555 121.446 16.555C120.864 16.555 120.411 16.753 120.087 17.149C119.763 17.545 119.601 18.103 119.601 18.823C119.601 19.537 119.763 20.095 120.087 20.497C120.411 20.899 120.864 21.1 121.446 21.1ZM128.008 22.072C127.648 22.072 127.468 21.886 127.468 21.514V16.159C127.468 15.973 127.513 15.832 127.603 15.736C127.699 15.634 127.822 15.583 127.972 15.583C128.11 15.583 128.212 15.61 128.278 15.664C128.35 15.712 128.434 15.796 128.53 15.916L131.743 20.083V16.132C131.743 15.766 131.923 15.583 132.283 15.583C132.637 15.583 132.814 15.766 132.814 16.132V21.532C132.814 21.7 132.772 21.832 132.688 21.928C132.604 22.024 132.49 22.072 132.346 22.072C132.208 22.072 132.097 22.045 132.013 21.991C131.935 21.937 131.848 21.85 131.752 21.73L128.539 17.554V21.514C128.539 21.886 128.362 22.072 128.008 22.072Z" fill="black"/>
<path d="M70.56 41.198C69.132 41.198 67.92 40.928 66.924 40.388C65.94 39.848 65.19 39.092 64.674 38.12C64.158 37.148 63.9 36.008 63.9 34.7C63.9 33.356 64.164 32.192 64.692 31.208C65.232 30.224 66.006 29.462 67.014 28.922C68.022 28.382 69.234 28.112 70.65 28.112C71.298 28.112 71.946 28.184 72.594 28.328C73.242 28.472 73.866 28.712 74.466 29.048C74.79 29.228 74.982 29.468 75.042 29.768C75.114 30.068 75.084 30.362 74.952 30.65C74.82 30.926 74.616 31.13 74.34 31.262C74.076 31.382 73.758 31.352 73.386 31.172C72.582 30.752 71.676 30.542 70.668 30.542C69.384 30.542 68.418 30.902 67.77 31.622C67.134 32.33 66.816 33.356 66.816 34.7C66.816 36.056 67.14 37.082 67.788 37.778C68.448 38.474 69.42 38.822 70.704 38.822C71.388 38.822 72.108 38.714 72.864 38.498V36.014H71.244C70.5 36.014 70.128 35.678 70.128 35.006C70.128 34.334 70.5 33.998 71.244 33.998H74.07C74.802 33.998 75.168 34.37 75.168 35.114V39.29C75.168 39.602 75.102 39.866 74.97 40.082C74.85 40.298 74.652 40.454 74.376 40.55C73.836 40.742 73.23 40.898 72.558 41.018C71.886 41.138 71.22 41.198 70.56 41.198ZM80.3914 30.542C79.8874 30.542 79.4974 30.428 79.2214 30.2C78.9574 29.96 78.8254 29.624 78.8254 29.192C78.8254 28.748 78.9574 28.412 79.2214 28.184C79.4974 27.944 79.8874 27.824 80.3914 27.824C81.4234 27.824 81.9394 28.28 81.9394 29.192C81.9394 30.092 81.4234 30.542 80.3914 30.542ZM80.3914 41.144C79.9474 41.144 79.6054 41.018 79.3654 40.766C79.1374 40.502 79.0234 40.136 79.0234 39.668V33.512C79.0234 32.516 79.4794 32.018 80.3914 32.018C80.8234 32.018 81.1534 32.15 81.3814 32.414C81.6214 32.666 81.7414 33.032 81.7414 33.512V39.668C81.7414 40.136 81.6274 40.502 81.3994 40.766C81.1714 41.018 80.8354 41.144 80.3914 41.144ZM89.7978 41.198C87.3138 41.198 86.0718 39.992 86.0718 37.58V34.196H85.3158C84.6078 34.196 84.2538 33.86 84.2538 33.188C84.2538 32.504 84.6078 32.162 85.3158 32.162H86.0718V30.794C86.0718 29.87 86.5278 29.408 87.4398 29.408C88.3398 29.408 88.7898 29.87 88.7898 30.794V32.162H90.4998C91.1958 32.162 91.5438 32.504 91.5438 33.188C91.5438 33.86 91.1958 34.196 90.4998 34.196H88.7898V37.472C88.7898 37.976 88.9038 38.354 89.1318 38.606C89.3718 38.858 89.7498 38.984 90.2658 38.984C90.4458 38.984 90.6138 38.966 90.7698 38.93C90.9258 38.894 91.0698 38.87 91.2018 38.858C91.3698 38.846 91.5078 38.9 91.6158 39.02C91.7238 39.14 91.7778 39.386 91.7778 39.758C91.7778 40.058 91.7298 40.316 91.6338 40.532C91.5378 40.736 91.3698 40.886 91.1298 40.982C90.9738 41.042 90.7578 41.09 90.4818 41.126C90.2178 41.174 89.9898 41.198 89.7978 41.198ZM95.9951 41.162C95.5391 41.162 95.1911 41.036 94.9511 40.784C94.7111 40.532 94.5911 40.178 94.5911 39.722V29.588C94.5911 28.628 95.0591 28.148 95.9951 28.148C96.9191 28.148 97.3811 28.628 97.3811 29.588V33.404H103.285V29.588C103.285 28.628 103.747 28.148 104.671 28.148C105.607 28.148 106.075 28.628 106.075 29.588V39.722C106.075 40.178 105.955 40.532 105.715 40.784C105.475 41.036 105.127 41.162 104.671 41.162C104.227 41.162 103.885 41.036 103.645 40.784C103.405 40.532 103.285 40.178 103.285 39.722V35.726H97.3811V39.722C97.3811 40.682 96.9191 41.162 95.9951 41.162ZM113.28 41.198C112.152 41.198 111.318 40.886 110.778 40.262C110.25 39.638 109.986 38.702 109.986 37.454V33.386C109.986 32.474 110.436 32.018 111.336 32.018C112.248 32.018 112.704 32.474 112.704 33.386V37.526C112.704 38.57 113.154 39.092 114.054 39.092C114.57 39.092 114.99 38.912 115.314 38.552C115.65 38.18 115.818 37.694 115.818 37.094V33.386C115.818 32.474 116.268 32.018 117.168 32.018C118.08 32.018 118.536 32.474 118.536 33.386V39.776C118.536 40.7 118.098 41.162 117.222 41.162C116.79 41.162 116.46 41.042 116.232 40.802C116.004 40.562 115.89 40.226 115.89 39.794C115.302 40.73 114.432 41.198 113.28 41.198ZM127.713 41.198C127.101 41.198 126.549 41.066 126.057 40.802C125.565 40.538 125.193 40.178 124.941 39.722V39.776C124.941 40.7 124.497 41.162 123.609 41.162C122.709 41.162 122.259 40.7 122.259 39.776V29.534C122.259 28.61 122.715 28.148 123.627 28.148C124.527 28.148 124.977 28.61 124.977 29.534V33.35C125.241 32.93 125.613 32.6 126.093 32.36C126.585 32.108 127.125 31.982 127.713 31.982C128.481 31.982 129.153 32.168 129.729 32.54C130.317 32.912 130.773 33.44 131.097 34.124C131.421 34.808 131.583 35.624 131.583 36.572C131.583 37.52 131.421 38.342 131.097 39.038C130.773 39.722 130.317 40.256 129.729 40.64C129.153 41.012 128.481 41.198 127.713 41.198ZM126.903 39.164C127.479 39.164 127.947 38.954 128.307 38.534C128.667 38.114 128.847 37.46 128.847 36.572C128.847 35.696 128.667 35.054 128.307 34.646C127.947 34.226 127.479 34.016 126.903 34.016C126.315 34.016 125.841 34.226 125.481 34.646C125.121 35.054 124.941 35.696 124.941 36.572C124.941 37.46 125.121 38.114 125.481 38.534C125.841 38.954 126.315 39.164 126.903 39.164Z" fill="black"/>
</svg>

<svg xmlns="http://www.w3.org/2000/svg" width="156" height="55" fill="none" xmlns:v="https://vecta.io/nano"><path d="M149.124 1H6.876C3.631 1 1 5.253 1 10.5v34C1 49.747 3.631 54 6.876 54h142.249c3.245 0 5.876-4.253 5.876-9.5v-34c0-5.247-2.631-9.5-5.876-9.5z" fill="#fffffc" stroke="#000"/><g fill="#000"><path fill-rule="evenodd" d="M32 12a16 16 0 0 0-16 16c0 7.08 4.58 13.06 10.94 15.18.8.14 1.1-.34 1.1-.76l-.02-2.98c-4.02.74-5.06-.98-5.38-1.88-.18-.46-.96-1.88-1.64-2.26-.56-.3-1.36-1.04-.02-1.06 1.26-.02 2.16 1.16 2.46 1.64 1.44 2.42 3.74 1.74 4.66 1.32.14-1.04.56-1.74 1.02-2.14-3.56-.4-7.28-1.78-7.28-7.9 0-1.74.62-3.18 1.64-4.3-.16-.4-.72-2.04.16-4.24 0 0 1.34-.42 4.4 1.64 1.28-.36 2.64-.54 4-.54s2.72.18 4 .54c3.06-2.08 4.4-1.64 4.4-1.64.88 2.2.32 3.84.16 4.24 1.02 1.12 1.64 2.54 1.64 4.3 0 6.14-3.74 7.5-7.3 7.9.58.5 1.08 1.46 1.08 2.96l-.02 4.4c0 .42.3.92 1.1.76a16.03 16.03 0 0 0 7.892-5.837C46.947 34.62 47.999 31.352 48 28a16 16 0 0 0-16-16z"/><path d="M65.88 22.09a5.15 5.15 0 0 1-1.179-.135c-.378-.09-.708-.225-.99-.405a.54.54 0 0 1-.252-.333.59.59 0 0 1 .027-.369c.054-.12.135-.201.243-.243.114-.048.243-.027.387.063.264.156.543.27.837.342s.603.108.927.108c.474 0 .819-.078 1.035-.234.216-.162.324-.369.324-.621a.59.59 0 0 0-.234-.495c-.15-.12-.411-.219-.783-.297l-.99-.207c-1.128-.24-1.692-.819-1.692-1.737 0-.396.105-.741.315-1.035s.501-.522.873-.684.801-.243 1.287-.243c.36 0 .702.045 1.026.135a2.97 2.97 0 0 1 .873.396.49.49 0 0 1 .216.315c.024.12.009.234-.045.342a.45.45 0 0 1-.261.216c-.114.036-.249.009-.405-.081a2.56 2.56 0 0 0-.675-.27c-.228-.054-.474-.081-.738-.081-.414 0-.738.087-.972.261s-.351.402-.351.684c0 .216.072.39.216.522.144.126.39.225.738.297l.981.207c.594.126 1.035.324 1.323.594.294.27.441.63.441 1.08 0 .378-.102.711-.306.999s-.495.513-.873.675c-.372.156-.813.234-1.323.234zm7.265-.018c-.384 0-.576-.198-.576-.594v-4.86h-1.755c-.33 0-.495-.162-.495-.486 0-.318.165-.477.495-.477h4.662c.33 0 .495.159.495.477 0 .324-.165.486-.495.486h-1.755v4.86c0 .396-.192.594-.576.594zm4.644 0c-.21 0-.36-.072-.45-.216s-.087-.318.009-.522l2.376-5.265c.078-.174.171-.297.279-.369a.67.67 0 0 1 .387-.117c.138 0 .261.039.369.117.114.072.21.195.288.369l2.385 5.265c.096.21.102.387.018.531-.084.138-.228.207-.432.207-.168 0-.3-.039-.396-.117-.09-.084-.171-.21-.243-.378l-.45-1.044h-3.096l-.441 1.044c-.078.174-.159.3-.243.378s-.204.117-.36.117zm2.583-5.166l-1.143 2.709h2.304l-1.143-2.709h-.018zm6.427 5.166c-.384 0-.576-.198-.576-.594V16.24c0-.39.195-.585.585-.585h2.169c.696 0 1.233.168 1.611.504.378.33.567.795.567 1.395 0 .474-.123.867-.369 1.179-.246.306-.6.513-1.062.621.306.096.558.327.756.693l.675 1.251c.102.192.12.369.054.531-.06.162-.213.243-.459.243-.162 0-.294-.033-.396-.099-.102-.072-.192-.18-.27-.324l-.909-1.674c-.108-.204-.237-.339-.387-.405-.144-.072-.33-.108-.558-.108h-.855v2.016c0 .396-.192.594-.576.594zm.576-3.465h1.404c.84 0 1.26-.342 1.26-1.026 0-.678-.42-1.017-1.26-1.017h-1.404v2.043zm13.698 3.483c-.87 0-1.536-.225-1.998-.675-.456-.456-.684-1.128-.684-2.016v-3.231c0-.39.192-.585.576-.585s.576.195.576.585v3.222c0 .57.129.999.387 1.287.264.282.645.423 1.143.423 1.014 0 1.521-.57 1.521-1.71v-3.222c0-.39.192-.585.576-.585.378 0 .567.195.567.585v3.231c0 .888-.225 1.56-.675 2.016-.45.45-1.113.675-1.989.675zm7.995 0a5.15 5.15 0 0 1-1.179-.135c-.378-.09-.708-.225-.99-.405a.54.54 0 0 1-.252-.333.59.59 0 0 1 .027-.369c.054-.12.135-.201.243-.243.114-.048.243-.027.387.063.264.156.543.27.837.342s.603.108.927.108c.474 0 .819-.078 1.035-.234.216-.162.324-.369.324-.621a.59.59 0 0 0-.234-.495c-.15-.12-.411-.219-.783-.297l-.99-.207c-1.128-.24-1.692-.819-1.692-1.737 0-.396.105-.741.315-1.035s.501-.522.873-.684.801-.243 1.287-.243c.36 0 .702.045 1.026.135a2.97 2.97 0 0 1 .873.396.49.49 0 0 1 .216.315c.024.12.009.234-.045.342a.45.45 0 0 1-.261.216c-.114.036-.249.009-.405-.081a2.56 2.56 0 0 0-.675-.27c-.228-.054-.474-.081-.738-.081-.414 0-.738.087-.972.261s-.351.402-.351.684c0 .216.072.39.216.522.144.126.39.225.738.297l.981.207c.594.126 1.035.324 1.323.594.294.27.441.63.441 1.08 0 .378-.102.711-.306.999s-.495.513-.873.675c-.372.156-.813.234-1.323.234zm12.378 0c-.612 0-1.149-.135-1.611-.405-.456-.27-.81-.648-1.062-1.134-.252-.492-.378-1.068-.378-1.728 0-.666.126-1.242.378-1.728a2.71 2.71 0 0 1 1.062-1.125c.456-.27.993-.405 1.611-.405s1.155.135 1.611.405a2.71 2.71 0 0 1 1.062 1.125c.252.486.378 1.059.378 1.719 0 .666-.126 1.245-.378 1.737-.252.486-.606.864-1.062 1.134s-.993.405-1.611.405zm0-.99c.582 0 1.035-.201 1.359-.603s.486-.96.486-1.674c0-.72-.162-1.278-.486-1.674-.318-.396-.771-.594-1.359-.594-.582 0-1.035.198-1.359.594s-.486.954-.486 1.674c0 .714.162 1.272.486 1.674s.777.603 1.359.603zm6.562.972c-.36 0-.54-.186-.54-.558v-5.355c0-.186.045-.327.135-.423.096-.102.219-.153.369-.153.138 0 .24.027.306.081.072.048.156.132.252.252l3.213 4.167v-3.951c0-.366.18-.549.54-.549.354 0 .531.183.531.549v5.4c0 .168-.042.3-.126.396a.43.43 0 0 1-.342.144c-.138 0-.249-.027-.333-.081-.078-.054-.165-.141-.261-.261l-3.213-4.176v3.96c0 .372-.177.558-.531.558zM70.56 41.198c-1.428 0-2.64-.27-3.636-.81-.984-.54-1.734-1.296-2.25-2.268s-.774-2.112-.774-3.42c0-1.344.264-2.508.792-3.492a5.61 5.61 0 0 1 2.322-2.286c1.008-.54 2.22-.81 3.636-.81.648 0 1.296.072 1.944.216s1.272.384 1.872.72c.324.18.516.42.576.72a1.32 1.32 0 0 1-.09.882c-.132.276-.336.48-.612.612-.264.12-.582.09-.954-.09-.804-.42-1.71-.63-2.718-.63-1.284 0-2.25.36-2.898 1.08-.636.708-.954 1.734-.954 3.078 0 1.356.324 2.382.972 3.078.66.696 1.632 1.044 2.916 1.044.684 0 1.404-.108 2.16-.324v-2.484h-1.62c-.744 0-1.116-.336-1.116-1.008s.372-1.008 1.116-1.008h2.826c.732 0 1.098.372 1.098 1.116v4.176c0 .312-.066.576-.198.792-.12.216-.318.372-.594.468-.54.192-1.146.348-1.818.468s-1.338.18-1.998.18zm9.831-10.656c-.504 0-.894-.114-1.17-.342-.264-.24-.396-.576-.396-1.008 0-.444.132-.78.396-1.008.276-.24.666-.36 1.17-.36 1.032 0 1.548.456 1.548 1.368 0 .9-.516 1.35-1.548 1.35zm0 10.602c-.444 0-.786-.126-1.026-.378-.228-.264-.342-.63-.342-1.098v-6.156c0-.996.456-1.494 1.368-1.494.432 0 .762.132.99.396.24.252.36.618.36 1.098v6.156c0 .468-.114.834-.342 1.098-.228.252-.564.378-1.008.378zm9.406.054c-2.484 0-3.726-1.206-3.726-3.618v-3.384h-.756c-.708 0-1.062-.336-1.062-1.008 0-.684.354-1.026 1.062-1.026h.756v-1.368c0-.924.456-1.386 1.368-1.386.9 0 1.35.462 1.35 1.386v1.368h1.71c.696 0 1.044.342 1.044 1.026 0 .672-.348 1.008-1.044 1.008h-1.71v3.276c0 .504.114.882.342 1.134.24.252.618.378 1.134.378a2.24 2.24 0 0 0 .504-.054c.156-.036.3-.06.432-.072a.48.48 0 0 1 .414.162c.108.12.162.366.162.738 0 .3-.048.558-.144.774-.096.204-.264.354-.504.45-.156.06-.372.108-.648.144-.264.048-.492.072-.684.072zm6.197-.036c-.456 0-.804-.126-1.044-.378s-.36-.606-.36-1.062V29.588c0-.96.468-1.44 1.404-1.44.924 0 1.386.48 1.386 1.44v3.816h5.904v-3.816c0-.96.462-1.44 1.386-1.44.936 0 1.404.48 1.404 1.44v10.134c0 .456-.12.81-.36 1.062s-.588.378-1.044.378c-.444 0-.786-.126-1.026-.378s-.36-.606-.36-1.062v-3.996H97.38v3.996c0 .96-.462 1.44-1.386 1.44zm17.285.036c-1.128 0-1.962-.312-2.502-.936-.528-.624-.792-1.56-.792-2.808v-4.068c0-.912.45-1.368 1.35-1.368.912 0 1.368.456 1.368 1.368v4.14c0 1.044.45 1.566 1.35 1.566.516 0 .936-.18 1.26-.54.336-.372.504-.858.504-1.458v-3.708c0-.912.45-1.368 1.35-1.368.912 0 1.368.456 1.368 1.368v6.39c0 .924-.438 1.386-1.314 1.386-.432 0-.762-.12-.99-.36s-.342-.576-.342-1.008c-.588.936-1.458 1.404-2.61 1.404zm14.433 0c-.612 0-1.164-.132-1.656-.396s-.864-.624-1.116-1.08v.054c0 .924-.444 1.386-1.332 1.386-.9 0-1.35-.462-1.35-1.386V29.534c0-.924.456-1.386 1.368-1.386.9 0 1.35.462 1.35 1.386v3.816a2.72 2.72 0 0 1 1.116-.99 3.5 3.5 0 0 1 1.62-.378c.768 0 1.44.186 2.016.558.588.372 1.044.9 1.368 1.584s.486 1.5.486 2.448-.162 1.77-.486 2.466c-.324.684-.78 1.218-1.368 1.602-.576.372-1.248.558-2.016.558zm-.81-2.034a1.76 1.76 0 0 0 1.404-.63c.36-.42.54-1.074.54-1.962 0-.876-.18-1.518-.54-1.926a1.76 1.76 0 0 0-1.404-.63c-.588 0-1.062.21-1.422.63-.36.408-.54 1.05-.54 1.926 0 .888.18 1.542.54 1.962s.834.63 1.422.63z"/></g></svg>
